app/views/shared/svg/k12/_svg_icon_inbox.svg

<?xml version="1.0" encoding="UTF-8" standalone="no"?>
<svg width="36px" height="37px" class="ic-icon-svg ic-icon-svg--dashboard" viewBox="0 0 36 37" version="1.1" xmlns="http://www.w3.org/2000/svg" xmlns:xlink="http://www.w3.org/1999/xlink" xmlns:sketch="http://www.bohemiancoding.com/sketch/ns">
    <!-- Generator: Sketch 3.3.2 (12043) - http://www.bohemiancoding.com/sketch -->
    <title>icon-inbox</title>
    <desc>Created with Sketch.</desc>
    <defs></defs>
    <g id="Page-1" stroke="none" stroke-width="1" fill="none" fill-rule="evenodd" sketch:type="MSPage">
        <g id="_svg_icon_inbox" sketch:type="MSLayerGroup" fill="#000000">
            <g id="Page-2" sketch:type="MSShapeGroup">
                <g id="1--Courses-Art-History-Modules">
                    <path d="M3,17.961538 L3,0 L33,0 L33,17.961538 L23.7990761,23.977527 L20.5115598,21.808817 C19.1227655,20.892657 16.8755364,20.893777 15.4884402,21.808817 L12.2009239,23.977527 L3,17.961538 L3,17.961538 Z M0,35 L16.3388672,24.107422 C17.2562855,23.49581 18.750521,23.500347 19.6611328,24.107422 L36,35 L36,37 L0,37 L0,35 L0,35 Z M36,19 L36,32 L26,25.5 L36,19 L36,19 Z M0,19 L0,32 L10,25.5 L0,19 L0,19 Z M8,6 C8,5.447715 8.4556644,5 8.9953976,5 L17.0046024,5 C17.5543453,5 18,5.443865 18,6 C18,6.552285 17.5443356,7 17.0046024,7 L8.9953976,7 C8.4456547,7 8,6.556135 8,6 L8,6 Z M8,11 C8,10.447715 8.4553056,10 8.9918031,10 L27.0081969,10 C27.5559546,10 28,10.443865 28,11 C28,11.552285 27.5446944,12 27.0081969,12 L8.9918031,12 C8.4440454,12 8,11.556135 8,11 L8,11 Z M8,16 C8,15.447715 8.4553056,15 8.9918031,15 L27.0081969,15 C27.5559546,15 28,15.443865 28,16 C28,16.552285 27.5446944,17 27.0081969,17 L8.9918031,17 C8.4440454,17 8,16.556135 8,16 L8,16 Z" id="icon-inbox"></path>
                </g>
            </g>
        </g>
    </g>
</svg>

<svg width="36" height="37" class="ic-icon-svg ic-icon-svg--dashboard" viewBox="0 0 36 37" xmlns="http://www.w3.org/2000/svg"><title>icon-inbox</title><path d="M3 17.962V0h30v17.962l-9.2 6.016-3.288-2.17c-1.39-.915-3.636-.914-5.024 0L12.2 23.98 3 17.962zM0 35l16.34-10.893c.916-.61 2.41-.607 3.32 0L36 35v2H0v-2zm36-16v13l-10-6.5L36 19zM0 19v13l10-6.5L0 19zM8 6c0-.552.456-1 .995-1h8.01c.55 0 .995.444.995 1 0 .552-.456 1-.995 1h-8.01A.995.995 0 0 1 8 6zm0 5c0-.552.455-1 .992-1h18.016c.548 0 .992.444.992 1 0 .552-.455 1-.992 1H8.992A.993.993 0 0 1 8 11zm0 5c0-.552.455-1 .992-1h18.016c.548 0 .992.444.992 1 0 .552-.455 1-.992 1H8.992A.993.993 0 0 1 8 16z" fill="currentColor" fill-rule="evenodd"/></svg>
